X: 29240
T: New Island
R: waltz
M: 3/4
K: Dmajor
D>E|:F>A-AA (3(BAF)|A3 D (3(EFd)|B3 (3(B/d/B/) A>G|F>A-A2-A>D|
F3 G (3(FED)|D>B-B2-B(3(B/d/B/)|A>F- F>F d>F|E4 D>E|
F>A-AA (3(BAF)|A3 D (3(EFd)|B3 (3(B/d/B/) A>G|F>A-A2-A>D|
F3 G (3(FED)|D>B-B2-B(3(B/d/B/)|A2-AE- EF/E/|D6-|D3 D (3 FED:|
|:B>d-d2-d>B|e>d-d2 d>e|f3 g (3 (fed)|A6|
c3 c B>A|B>A-A2 B>A|d>A-A2 G2|F3 D (3 (FED)|
B>d-d2-d>B|e>d-d2 d>e|f3 g (3 (fed)|A4 E2|
F3 G (3 FED|D>B-B2-B(3(B/d/B/)|A2-AE- EF/E/|1 D6-|D3 D (3(EFA):|2 D6-|D4||

